src/22x22/places/folder-gruvbox-material-purple-yandex-disk.svg

<?xml version="1.0" encoding="UTF-8"?>
<svg width="22" height="22" version="1" xmlns="http://www.w3.org/2000/svg">
 <rect x="1" y="8.5" width="20" height="12" rx="1" ry="1" opacity=".2"/>
 <path d="m1 16c0 0.554 0.446 1 1 1h18c0.554 0 1-0.446 1-1v-11c0-0.554-0.446-1-1-1h-9c-1.5 0-2-2-3.5-2h-5.5c-0.554 0-1 0.446-1 1" fill="#945e80"/>
 <rect x="1" y="7.5" width="20" height="12" rx="1" ry="1" opacity=".2"/>
 <rect x="3" y="6" width="16" height="8" rx="1" ry="1" fill="#E5DFC8"/>
 <rect x="1" y="8" width="20" height="12" rx="1" ry="1" fill="#d3869b"/>
 <path d="m2 2c-0.554 0-1 0.446-1 1v0.5c0-0.554 0.446-1 1-1h5.5c1.5 0 2 2 3.5 2h9c0.554 0 1 0.446 1 1v-0.5c0-0.554-0.446-1-1-1h-9c-1.5 0-2-2-3.5-2z" fill="#E5DFC8" opacity=".1"/>
 <path d="m10.546 11.023c-1.7778 0-1.3642 1.624-2.2745 2.113-0.0313 0.018-0.049 0.035-0.0771 0.052 0.6003-0.357 1.3402-0.656 2.1256-0.858 0.666-0.171 1.341-0.267 1.963-0.28h0.048c-0.6-0.17-0.666-1.027-1.785-1.027zm1.938 1.478c-0.623 0.012-1.298 0.108-1.963 0.279-2.1937 0.564-3.7568 1.792-3.4917 2.741 0.1528 0.543 0.8888 0.901 1.9854 0.966-5e-4 -4e-3 -0.0015-7e-3 -2e-3 -0.012-0.0592-0.513 0.2666-0.96 0.6485-1.262 0.3818-0.303 0.8728-0.523 1.4248-0.64s1.068-0.111 1.5 0.019c0.406 0.122 0.788 0.388 0.882 0.846 1.099-0.616 1.669-1.359 1.504-1.96-0.175-0.629-1.129-1.004-2.488-0.977zm-0.653 2.499a0.92931 1.7885 76.001 0 0-0.688 0.071 0.92931 1.7885 76.001 0 0-1.64 1.3 0.92931 1.7885 76.001 0 0 1.855 0.558 0.92931 1.7885 76.001 0 0 1.638-1.3 0.92931 1.7885 76.001 0 0-1.165-0.629z" fill="#4A413F"/>
</svg>

<svg xmlns="http://www.w3.org/2000/svg" width="22" height="22" version="1">
 <rect style="opacity:0.2" width="20" height="12" x="1" y="8.5" rx="1" ry="1"/>
 <path style="fill:#945e80" d="M 1,16 C 1,16.554 1.446,17 2,17 H 20 C 20.554,17 21,16.554 21,16 V 5 C 21,4.446 20.554,4 20,4 H 11 C 9.5,4 9,2 7.5,2 H 2 C 1.446,2 1,2.446 1,3"/>
 <rect style="opacity:0.2" width="20" height="12" x="1" y="7.5" rx="1" ry="1"/>
 <rect style="fill:#E5DFC8" width="16" height="8" x="3" y="6" rx="1" ry="1"/>
 <rect style="fill:#d3869b" width="20" height="12" x="1" y="8" rx="1" ry="1"/>
 <path style="opacity:0.1;fill:#E5DFC8" d="M 2,2 C 1.446,2 1,2.446 1,3 V 3.5 C 1,2.946 1.446,2.5 2,2.5 H 7.5 C 9,2.5 9.5,4.5 11,4.5 H 20 C 20.554,4.5 21,4.946 21,5.5 V 5 C 21,4.446 20.554,4 20,4 H 11 C 9.5,4 9,2 7.5,2 Z"/>
 <path style="fill:#4A413F" d="M 10.546,11.023 C 8.7682,11.023 9.1818,12.647 8.2715,13.136 8.2402,13.154 8.2225,13.171 8.1944,13.188 8.7947,12.831 9.5346,12.532 10.32,12.33 10.986,12.159 11.661,12.063 12.283,12.05 12.299,12.05 12.315,12.05 12.331,12.05 11.731,11.88 11.665,11.023 10.546,11.023 Z M 12.484,12.501 C 11.861,12.513 11.186,12.609 10.521,12.78 8.3273,13.344 6.7642,14.572 7.0293,15.521 7.1821,16.064 7.9181,16.422 9.0147,16.487 9.0142,16.483 9.0132,16.48 9.0127,16.475 8.9535,15.962 9.2793,15.515 9.6612,15.213 10.043,14.91 10.534,14.69 11.086,14.573 11.638,14.456 12.154,14.462 12.586,14.592 12.992,14.714 13.374,14.98 13.468,15.438 14.567,14.822 15.137,14.079 14.972,13.478 14.797,12.849 13.843,12.474 12.484,12.501 Z M 11.831,15 A 0.92931,1.7885 76.001 0 0 11.143,15.071 0.92931,1.7885 76.001 0 0 9.503,16.371 0.92931,1.7885 76.001 0 0 11.358,16.929 0.92931,1.7885 76.001 0 0 12.996,15.629 0.92931,1.7885 76.001 0 0 11.831,15 Z"/>
</svg>
